components/ui-node-icon/src/snowflakeSource/snowflakeSource.small.svg

<svg width="16" height="16" viewBox="0 0 16 16" fill="none" xmlns="http://www.w3.org/2000/svg">
  <path fill-rule="evenodd" clip-rule="evenodd" d="M5.91054 6.05248L2.94794 4.34652C2.53174 4.10622 2.38796 3.57531 2.62885 3.16014C2.86975 2.74497 3.40198 2.60281 3.81818 2.8431L5.50065 3.81183V1.86557C5.50065 1.38749 5.8891 1 6.36837 1C6.84637 1 7.23482 1.38749 7.23482 1.86557V5.28505C7.23482 5.53667 7.12762 5.76312 6.95483 5.92164C6.68241 6.1871 6.25612 6.25252 5.91054 6.05248ZM5.66338 8.01131C5.66843 7.70308 5.50573 7.41623 5.23835 7.26149L2.27575 5.55552C2.1471 5.48129 1.99954 5.44229 1.85198 5.44229C1.54802 5.44229 1.26551 5.60458 1.11416 5.86627C0.879578 6.27137 1.01957 6.79096 1.42569 7.02497L3.13338 8.00753L1.42569 8.99136C1.22894 9.10459 1.08768 9.28701 1.02966 9.50592C0.970385 9.72482 1.00065 9.9538 1.11416 10.1501C1.26551 10.4117 1.54802 10.574 1.85072 10.574C1.99954 10.574 2.1471 10.535 2.27575 10.4608L5.23835 8.75484C5.50321 8.60135 5.6659 8.31702 5.66338 8.01131ZM13.0314 11.6698L10.0688 9.96261C9.65261 9.72357 9.12037 9.86573 8.87948 10.2809C8.78615 10.4445 8.74957 10.6244 8.76723 10.7992V14.1357C8.76723 14.6125 9.15568 15 9.63495 15C10.1129 15 10.5014 14.6125 10.5014 14.1357V12.2171L12.1612 13.1732C12.5774 13.4135 13.1109 13.2701 13.3505 12.855C13.5914 12.4398 13.4489 11.9089 13.0314 11.6698ZM9.60977 8.14975C9.60977 8.21517 9.57193 8.30575 9.52526 8.35356L8.35107 9.52484C8.3044 9.57139 8.21234 9.60913 8.14675 9.60913H7.84784C7.78226 9.60913 7.69019 9.57139 7.64353 9.52484L6.46807 8.35356C6.4214 8.30575 6.38357 8.21517 6.38357 8.14975V7.85158C6.38357 7.7849 6.4214 7.69432 6.46807 7.64777L7.64353 6.47523C7.69019 6.42868 7.78226 6.39094 7.84784 6.39094H8.14675C8.21234 6.39094 8.3044 6.42868 8.35107 6.47523L9.52526 7.64777C9.57193 7.69432 9.60977 7.7849 9.60977 7.85158V8.14975ZM8.56169 8.00632V7.99374C8.56169 7.94594 8.53395 7.87926 8.49989 7.84403L8.15306 7.49931C8.11901 7.46409 8.05216 7.43641 8.00297 7.43641H7.99036C7.94243 7.43641 7.87559 7.46409 7.84028 7.49931L7.4947 7.84403C7.46065 7.878 7.4329 7.94468 7.4329 7.99374V8.00632C7.4329 8.05539 7.46065 8.12207 7.4947 8.15604L7.84028 8.50201C7.87559 8.53598 7.94243 8.56366 7.99036 8.56366H8.00297C8.05216 8.56366 8.11901 8.53598 8.15306 8.50201L8.49989 8.15604C8.53395 8.12207 8.56169 8.05539 8.56169 8.00632ZM13.0314 4.34652L10.0688 6.05249C9.65258 6.29278 9.12034 6.15062 8.87945 5.73545C8.78486 5.5719 8.75081 5.39073 8.7672 5.21711V1.86557C8.7672 1.38749 9.15566 1 9.63492 1C10.1129 1 10.5014 1.38749 10.5014 1.86557V3.79925L12.1611 2.8431C12.5773 2.60281 13.1096 2.74497 13.3505 3.16014C13.5914 3.57531 13.4476 4.10748 13.0314 4.34652ZM6.50458 9.86192C6.30783 9.82418 6.0972 9.85563 5.91054 9.96257L2.94794 11.6698C2.53174 11.9088 2.38796 12.4397 2.62885 12.8549C2.86975 13.2713 3.40198 13.4135 3.81818 13.1732L5.50065 12.2045V14.1356C5.50065 14.6125 5.8891 15 6.36837 15C6.84637 15 7.23482 14.6125 7.23482 14.1356V10.7162C7.23482 10.2846 6.91826 9.92734 6.50458 9.86192ZM13.6937 5.53791C14.1099 5.29761 14.6434 5.43978 14.883 5.8562C15.1239 6.27137 14.9814 6.80229 14.5639 7.04132L12.8865 8.00754L14.5639 8.97375C14.9801 9.21404 15.1239 9.74496 14.883 10.1601C14.6421 10.5753 14.1099 10.7175 13.6937 10.4784L10.7311 8.7712C10.4498 8.61016 10.2934 8.31451 10.2959 8.01131C10.2909 7.70685 10.4473 7.40743 10.7311 7.24388L13.6937 5.53791Z" fill="var(--tbl--colors--brand--snowflake)"/>
</svg>

<svg xmlns="http://www.w3.org/2000/svg" width="16" height="16" fill="none" viewBox="0 0 16 16">
  <path fill="var(--tbl--colors--brand--snowflake)" fill-rule="evenodd" d="M5.91 6.052 2.949 4.347a.867.867 0 1 1 .87-1.504l1.683.969V1.866a.867.867 0 0 1 1.734 0v3.419a.86.86 0 0 1-.28.637.872.872 0 0 1-1.044.13Zm-.247 1.96a.85.85 0 0 0-.425-.75L2.276 5.555a.852.852 0 0 0-1.162.31.848.848 0 0 0 .312 1.159l1.707.983-1.707.983a.839.839 0 0 0-.396.515.84.84 0 0 0 .084.644.853.853 0 0 0 1.162.31l2.962-1.705a.852.852 0 0 0 .425-.744Zm7.368 3.658L10.07 9.963a.873.873 0 0 0-1.302.836v3.337a.866.866 0 0 0 1.734 0v-1.919l1.66.956c.416.24.95.097 1.19-.318a.865.865 0 0 0-.32-1.185ZM9.61 8.15a.335.335 0 0 1-.085.204l-1.174 1.17a.333.333 0 0 1-.204.085h-.3a.333.333 0 0 1-.203-.084L6.468 8.354a.335.335 0 0 1-.084-.204v-.298c0-.067.037-.158.084-.204l1.176-1.173a.333.333 0 0 1 .204-.084h.299c.065 0 .157.038.204.084l1.174 1.173a.329.329 0 0 1 .085.204v.298Zm-1.048-.144v-.012a.248.248 0 0 0-.062-.15l-.347-.345a.237.237 0 0 0-.15-.063H7.99a.243.243 0 0 0-.15.063l-.345.345a.242.242 0 0 0-.062.15v.012c0 .05.028.116.062.15l.345.346a.25.25 0 0 0 .15.062h.013c.05 0 .116-.028.15-.062l.347-.346a.242.242 0 0 0 .062-.15Zm4.47-3.66-2.963 1.706a.872.872 0 0 1-1.302-.835V1.866a.867.867 0 0 1 1.734 0v1.933l1.66-.956a.872.872 0 0 1 1.19.317.867.867 0 0 1-.32 1.187ZM6.504 9.863a.865.865 0 0 0-.594.1L2.948 11.67a.866.866 0 0 0-.32 1.185.87.87 0 0 0 1.19.318l1.683-.969v1.932a.866.866 0 0 0 1.734 0v-3.42a.866.866 0 0 0-.73-.854Zm7.189-4.324a.87.87 0 0 1 1.189.318.865.865 0 0 1-.32 1.185l-1.677.967 1.678.966c.416.24.56.771.319 1.186a.873.873 0 0 1-1.19.318l-2.962-1.707a.866.866 0 0 1-.435-.76.869.869 0 0 1 .435-.767l2.963-1.706Z" clip-rule="evenodd"/>
</svg>
